X:1
T:The Cleansing Blood
T:The Cleansing Blood
T:Daniel Brink Towner
T:D. Lee Aultman, 1883, alt.
T:Public Domain Courtesy of the Cyber Hymnal™
C:Daniel Brink Towner
Z:Public Domain
Z:Courtesy of the Cyber Hymnal™
%%score ( 1 2 ) ( 3 4 )
L:1/8
Q:1/4=105
M:4/4
K:Bb
V:1 treble 
V:2 treble 
V:3 bass 
V:4 bass 
V:1
 [DF]2 | [DF]3 [DB] ([Ec][GB]) ([FA][EG]) | [DF]2 [DB]2 [Fd]2 [FB]2 | [Ec]3 [Ec] [DB]2 [EA]2 | %4
w: 1.~The|blood that flowed * on *|Cal- va- ry Has|reached my sin- stained|
w: 2.~O|Lamb of God, * I’m *|whol- ly Thine, The|con- se- cra- tion’s|
w: 3.~Loud|hal- le- lu- * jahs *|to the Lamb That|bought us with His|
 [DB]6 [DF]2 | [DF]3 [DB] ([Ec][GB]) ([FA][EG]) | [DF]2 [DB]2 [Fd]2 ([FB][FB]) | %7
w: soul; I|now re- joice * as *|they re- joice Who~are *|
w: made; My|soul and bo- * dy, *|mind and strength, On *|
w: blood; Our|souls are to * the *|ut- most filled With~the *|
 [Ec]3 [EF] [Fd]2 [Ec]2 | [DB]6 ||"^Refrain" F2 | [Ec]6 [Fd]2 | [DB]6 [DF]2 | %12
w: ev- ery whit made|whole.||||
w: Je- sus now are|stayed.|That|pre- cious|blood, It|
w: full- ness of our|God.||||
 [EG]2 [EA]2 [DB]2 [Gc]2 | [^Fd]6 [FA]2 | [GB]6 [EG]2 | [DF]6 [FB]2 | [Ec]2 [EF]2 [Fd]3 [Ec] | %17
w: |||||
w: cleans- eth me from|sin; That|pre- cious|blood, It|makes me pure with-|
w: |||||
 [DB]6 |] %18
w: |
w: in.|
w: |
V:2
 x2 | x8 | x8 | x8 | x8 | x8 | x8 | x8 | x6 || F2 | x8 | x8 | x8 | x8 | x8 | x8 | x8 | x6 |] %18
V:3
 [B,,B,]2 | [B,,B,]3 [B,,B,] [E,B,]2 [E,B,]2 | [B,,B,]2 [B,,B,]2 [B,,B,]2 [D,B,]2 | %3
w: |||
 [F,A,]3 [F,A,] [F,B,]2 [F,C]2 | [B,,B,]6 [B,,B,]2 | [B,,B,]3 [B,,B,] [E,B,]2 [E,B,]2 | %6
w: |||
 [B,,B,]2 [B,,B,]2 [B,,B,]2 ([D,B,][D,B,]) | [F,A,]3 [F,A,] [F,B,]2 [F,A,]2 | [B,,B,]6 || z2 | %10
w: ||||
 z [F,,F,][A,,F,][C,F,] [F,,A,]2 z2 | z [B,,F,][D,F,]F, [B,,B,]2 [B,,B,]2 | %12
w: That pre- cious blood,|that pre- cious blood, It|
 [E,B,][E,B,][C,C][C,C] [G,B,][G,B,][E,G,][E,G,] | [D,A,]6 z2 | z2 [E,B,][G,B,] B,[E,B,] z2 | %15
w: cleans- eth me, yes, it cleans- eth me|from|sin; That pre- cious|
 z [B,,B,][D,B,][F,B,] [B,,F,]2 [D,B,]2 | [F,A,]2 [F,C]2 [F,B,]3 [F,A,] | [B,,F,]6 |] %18
w: blood, that pre- cious blood,|||
V:4
 x2 | x8 | x8 | x8 | x8 | x8 | x8 | x8 | x6 || x2 | x8 | x3 F, x4 | x8 | x8 | x4 B, x3 | x8 | x8 | %17
 x6 |] %18

